!!!OTL: Siehst du dort die Wolken eilen! (1-39), S. 102f
!!!id: K1087
**kern
*clefG2
*k[b-]
*F:
{8a
8c
=1
4.f
8a
8dd
8cc
=2
4a
4a}
=3
{8cc
8b-
=4
4.g
8b-
8a
8g
=5
2f}
=6
{8a
8c
=7
4.f
8a
8dd
8cc
=8
4a
4a}
=9
{8cc
8b-
=10
4.g
8b-
8a
8g
=11
2f}
=12
{8g
8g
=13
4.g
8g
8a
8b
=14
8cc
8dd
4ee}
=15
{8ff
8ee
=16
4.dd
8g
8ee
8dd
=17
2cc}
=18
{8dd
8cc
=19
4.b-
8a
8g
8f
=20
8e
8g
4c}
=21
{8dd
8dd
=22
2cc
8f
8g
=23
2a
4g
=24
2f}
=25
{8dd
8cc
=26
4.b-
8a
8g
8f
=27
4e
4c}
=28
{8dd
8dd
=29
2cc
8f
8g
=30
2a
4g
=31
2f}
==
*-
!!!minrhy: 8
!!!meters: 3/4 ]  ZZ[10
!!!cut: Siehst du dort die Wolken eilen! (1-39), S. 102f
!!!reg: Luxemburg
!!!trd: KINTZELE, Guillaume: An der Ucht, Bd. 1, Luxemburg 1926
!!!rhy1: XX  X_.XXX  X_X_
!!!rhy2: XX  X_.XXX  X__
!!!key: K1087  08  F 3/4 ]  ZZ[10
!!!mod: ACHTTONSKALA DUR ?]  AMBITUS[11
!!!kad: 313175-51-51
!!!akz: 13_21_13_21_25_65_4-7_531_4-7_531_
!!!fot: 'a__b__a__b__c__bs"d__e__dv_e__
!!!for: 'a__aw_a__aw_aw_aw_aw_b__a__b__
!!!fok: 'S__\__S__\__/__\__\__Sd_\__Sd_
!! PHRAS[AUFTAKTIG]
!!!fkt: Trennungsschmerz, Treueschwur
!!!bem: in der Quelle mit einer 2. Stimme versehen
!! KINTZELE
!! PR[9] 2K[6] 2G[11] 3K[4] 3G[0] 4A[9] 4Ü[0] 5A[4] 6K[2] 6G[2]
!! 7K[0] 7G[0] 8A[0] MEHR[0] SI[38] ABS[47] SR[17] SP[21]
!! ST[12] 2k[4] 2g[17] 3k[19] 3g[4] 4d[9] 4ü[0] 5d[0] 6k[0] 6g[0]
!! 7k[0] 7g[0] 8d[0] mehr[0] si[53] dm[-15] sr[21] sp[32]
!! 1F[73] 2F[15] 3F[0] 4F[0] LF[0] 2P[12] 3P[0] 4P[0] TRI[0] DF[3] AB[52]
!! TF[0] U3K[0] U3[0] U4[0] U4Ü[0] U5[0] U6K[0] U6[0] U7K[0] U7[0]
!! N1[4] N2K[0] N2[4] N3K[0] N3[19] N4[6] N4Ü[0] N5[25] N6K[0] N6[19]
!!!n7k: 0] N7[4] O1[17] O2K[0] O2[2] O3K[0] O3[0] HÖ[0
